X:1
T:Sangshyttevalsen
C:Eva Saether, Mats Edén
O: Sweden
R:waltz
M:3/4
L:1/8
K:Amin
A ef |: "Am"e3 A ef | "Dm"d4 DG | "G"B4 AG | "Em"E3 e ef |
"Am"e3 A ef | "Dm"d4 dc | "G"Bc de cB |1 "Am"A3 Aef :|2 "Am"A6 ||
|"Am"cE Ec Ec | "G"BD DB DB | "Fmaj"AF FA GF | "Em"E2 D2 CD |
"Am"cE Ec Ec | "G"BD DB DB | "F"AG Ac "G"BG | "Am"A2 A4 ||
|"F"cE Ec Ec | "F/G"BD DB DB | "Dm"AF FA GF | "E7"E2 D2 CD |
"F"cE Ec Ec | "G"BD DB DB | "Dm"AG Ac "G"BG | "Am"A2 A4 |]
